!!!!SEGMENT: pl-wtm--r-1552--001_stefani-jozef--missa-no-13-kyrie.krn
!!!cenid: 18xx:1812
!!!COM: Stefani, Józef
!!!COM-rismID: pe30024097
!!!CDT: 1800/04/16-1876/03/19
!!!CNT: Polish
!!!OPR: Missa No 13
!!!OTL: Kyrie
!!!OMV: 001
!!!PDT:
!!!AGN: Sacred; Mass
!!!SMS-siglum: PL-Wtm
!!!SMS-shelfmark: R 1552
!!!SMS-shelfwork: 001-001 M
!!!SMS-variant:
!!!SMS-altvar:
!!!NIFC-rismSourceID: 1001115180
!!!NIFC-rismChildID: 1001115180
!!!NIFC-islandoraID: pl-wtm:26719
!!!URL-pdf-islandora: https://repozytorium.nifc.pl/islandora/object/pl-wtm%3A26719/datastream/PDF/view
!!!URL-scan: https://polish.musicsources.pl/pl/lokalizacje/galeria/rekopisy/6353 @EN{Scan on Polish Music Sources Website} @PL{Skany w portalu Dziedzictwo Muzyki Polskiej w otwartym dostępie}
!!!ONB-nifc: UWAGA: części Mszy: 1. Kyrie, 2. Gloria, 3. Graduale, 4. Credo, 5. Offertorium, 6. Sanctus, 7. Benedictus, 8. Agnus Dei
!!!AIN: 4 empty 1 organ 1 soprn 1 tenor 1 viola 1 violn
!!!key:
**kern	**kern	**dynam	**kern	**dynam	**kern	**kern	**kern	**dynam	**kern	**dynam	**kern	**text	**kern	**text	**kern	**text	**text	**text	**dynam
*part9	*part9	*part9	*part8	*part8	*part7	*part6	*part5	*part5	*part4	*part4	*part3	*part3	*part2	*part2	*part1	*part1	*part1	*part1	*part1
*staff10	*staff9	*	*staff8	*	*staff7	*staff6	*staff5	*	*staff4	*	*staff3	*staff3	*staff2	*staff2	*staff1	*staff1	*staff1	*staff1	*
*Iorgan	*Iempty	*	*Iempty	*	*Iviola	*Iempty	*Ivioln	*	*Iempty	*	*Itenor	*	*Iempty	*	*Isoprn	*	*	*	*
*I"Organo.	*	*	*I"Bassi	*	*I"Viole	*I"	*I"Violini	*	*I"Baſso	*	*I"Tenore	*	*	*	*I"Soprani	*	*	*	*
*I'Org.	*	*	*I'B-i	*	*I'V-le	*I'[V-no II]	*I'V-ni	*	*I'B.	*	*I'T.	*	*I'A.	*	*I'S.	*	*	*	*
*clefF4	*clefG2	*	*clefF4	*	*clefC3	*clefG2	*clefG2	*	*clefF4	*	*clefC4	*	*clefG2	*	*clefG2	*	*	*	*
*	*	*	*Trd0c0	*	*	*	*	*	*	*	*	*	*	*	*	*	*	*	*
*k[f#c#g#]	*k[f#c#g#]	*	*k[f#c#g#]	*	*k[f#c#g#]	*k[f#c#g#]	*k[f#c#g#]	*	*k[f#c#g#]	*	*k[f#c#g#]	*	*k[f#c#g#]	*	*k[f#c#g#]	*	*	*	*
*A:	*A:	*	*A:	*	*A:	*A:	*A:	*	*A:	*	*A:	*	*A:	*	*A:	*	*	*	*
*M2/2	*M2/2	*	*M2/2	*	*M2/2	*M2/2	*M2/2	*	*M2/2	*	*M2/2	*	*M2/2	*	*M2/2	*	*	*	*
*met(c|)	*met(c|)	*	*met(c|)	*	*met(c|)	*met(c|)	*met(c|)	*	*met(c|)	*	*met(c|)	*	*met(c|)	*	*met(c|)	*	*	*	*
*>[A,B,B,B,C]	*	*	*	*	*	*	*	*	*	*	*	*	*	*	*	*	*	*	*
=1	=1	=1	=1	=1	=1	=1	=1	=1	=1	=1	=1	=1	=1	=1	=1	=1	=1	=1	=1
*>A	*	*	*	*	*	*	*	*	*	*	*	*	*	*	*	*	*	*	*
*	*	*	*2\right	*	*	*	*	*	*	*	*	*	*	*	*	*	*	*	*
!	!	!LO:DY:rj	!	!LO:DY:rj:a	!	!	!	!	!	!	!	!	!	!	!LO:TX:a:t=Allegro moderato.	!	!	!	!
[2E/ [2EE/	2r	f >	2E\	f	2r	2r	2r	.	1r	.	1r	.	1r	.	1r	.	.	.	.
!	!	!	!	!LO:HP:a	!	!	!	!	!	!	!	!	!	!	!	!	!	!	!
.	.	.	.	>	.	.	.	.	.	.	.	.	.	.	.	.	.	.	.
*	*	*	*	*	*2\right	*	*2\right	*	*	*	*	*	*	*	*	*	*	*	*
!	!	!	!	!	!	!	!LO:TX:t=P:problem=all\right&colon; global	!	!	!	!	!	!	!	!	!	!	!	!
.	.	.	.	.	.	.	.	f	.	.	.	.	.	.	.	.	.	.	.
!	!	!	!	!LO:DY:a	!	!	!	!LO:HP:b	!	!	!	!	!	!	!	!	!	!	!
.	.	] p	.	] p	.	.	.	.	.	.	.	.	.	.	.	.	.	.	.
2E/] 2EE/]	2ee/ 2g#/ 2e/	.	2EE/	.	[2e\	2g#/	[2ee\	> ]]	.	.	.	.	.	.	.	.	.	.	.
=2	=2	=2	=2	=2	=2	=2	=2	=2	=2	=2	=2	=2	=2	=2	=2	=2	=2	=2	=2
*	*^	*	*	*	*	*	*	*	*	*	*	*	*	*	*	*	*	*	*
*	*	*^	*	*	*	*	*	*	*	*	*	*	*	*	*	*	*	*	*	*
!	!	!	!	!	!	!	!	!	!	!LO:DY:b	!	!	!	!	!	!	!	!	!	!	!
2F#/ 2FF#/	4ee/	2a/	4e\	.	2FF#/	.	4e\]	2a/	4ee\]	p	1r	.	1r	.	1r	.	1r	.	.	.	.
.	4dd/	.	4d\	.	.	.	4d\	.	4dd\	.	.	.	.	.	.	.	.	.	.	.	.
*	*	*	*2\right	*	*	*	*	*	*	*	*	*	*	*	*	*	*	*	*	*	*
2G#/ 2GG#/	2b/	2ryy	2e\	.	2GG#/	.	2e\	2b/	2b\	.	.	.	.	.	.	.	.	.	.	.	.
*	*v	*v	*v	*	*	*	*	*	*	*	*	*	*	*	*	*	*	*	*	*	*
=3	=3	=3	=3	=3	=3	=3	=3	=3	=3	=3	=3	=3	=3	=3	=3	=3	=3	=3	=3
4AA/	2cc#/ 2a/ 2e/	.	4AA/	.	4e\	4a/	4cc#\	.	1r	.	1r	.	1r	.	1r	.	.	.	.
4A\	.	.	4A\	.	4e\	4a/	4cc#\	.	.	.	.	.	.	.	.	.	.	.	.
4FF#/	2cc#/ 2a/ 2f#/	.	4FF#/	.	4r	4r	4r	.	.	.	.	.	.	.	.	.	.	.	.
4F#\	.	.	4F#\	.	4e\	4a/	4cc#\	.	.	.	.	.	.	.	.	.	.	.	.
=4	=4	=4	=4	=4	=4	=4	=4	=4	=4	=4	=4	=4	=4	=4	=4	=4	=4	=4	=4
*	*^	*	*	*	*	*	*	*	*	*	*	*	*	*	*	*	*	*	*
4DD/	4ee/ 4a#X/	2f#\	.	4DD/	.	2f#\	(4a#X/	(4ee\	.	1r	.	1r	.	1r	.	2r	.	.	.	.
4D\	4dd/ 4b/	.	.	4D\	.	.	4b/)	4dd\)	.	.	.	.	.	.	.	.	.	.	.	.
!	!	!	!	!	!	!	!	!	!	!	!	!	!	!	!	!LO:TX:t=P:problem=repetycja w środku taktu	!	!	!	!
4EE/	4cc#/ 4an/	2e\	.	4EE/	.	2e\	4an/	4cc#\	.	.	.	.	.	.	.	4r	.	.	.	.
=-	=-	=-	=-	=-	=-	=-	=-	=-	=-	=-	=-	=-	=-	=-	=-	=|:	=	=	=	=
4E\	4b/ 4g#/	.	.	4E\	.	.	4g#/	4b\	.	.	.	.	.	.	.	4e/	1.) Z od-	2.) Ze-	3.) Spraw	.
*	*v	*v	*	*	*	*	*	*	*	*	*	*	*	*	*	*	*	*	*	*
!!LO:LB:g=original
=5||	=5||	=5||	=5||	=5||	=5||	=5||	=5||	=5||	=5	=5	=5	=5	=5	=5	=5	=5	=5	=5	=5
*>B	*	*	*	*	*	*	*	*	*	*	*	*	*	*	*	*	*	*	*
!	!	!	!LO:TX:b:t=pizz(icato)	!	!	!	!	!	!	!	!	!	!	!	!	!	!	!	!
4AA/	2a/ 2e/ 2c#/	.	4AA/	.	4c#\	4a/	4a/	.	1r	.	1r	.	1r	.	2a/	-gło-	-bra-	Bo-	.
4A\	.	.	4A\	.	4c#\	4e/	4a/	.	.	.	.	.	.	.	.	.	.	.	.
4G#\	2b/ [2e/	.	4G#\	.	4r	4r	4r	.	.	.	.	.	.	.	2b/	-sem	-ni	-że	.
4GG#/	.	.	4GG#/	.	4e\	4e/	4b/	.	.	.	.	.	.	.	.	.	.	.	.
=6	=6	=6	=6	=6	=6	=6	=6	=6	=6	=6	=6	=6	=6	=6	=6	=6	=6	=6	=6
*	*^	*	*	*	*	*	*	*	*	*	*	*	*	*	*	*	*	*	*
4AA/	2cc#/ 2a/	2e\]	.	4AA/	.	4r	4r	4r	.	1r	.	1r	.	1r	.	2cc#/	wdzię-	dziś	byś-	.
4C#/	.	.	.	4C#/	.	4e\	4a/	4cc#\	.	.	.	.	.	.	.	.	.	.	.	.
4F#\	2a/ 2f#/ 2c#/	2ryy	.	4F#\	.	4r	4r	4r	.	.	.	.	.	.	.	2a/	-cznych	po-	-my	.
4E\	.	.	.	4E\	.	4c#\	4f#/	4a/	.	.	.	.	.	.	.	.	.	.	.	.
*	*v	*v	*	*	*	*	*	*	*	*	*	*	*	*	*	*	*	*	*	*
=7	=7	=7	=7	=7	=7	=7	=7	=7	=7	=7	=7	=7	=7	=7	=7	=7	=7	=7	=7
4D\	2f#/ 2d/	.	4D\	.	4r	4r	4r	.	1r	.	1r	.	1r	.	(2f#/	pie-	-spo-	zgo-	.
4BB/	.	.	4BB/	.	4d\	4f#/	4f#/	.	.	.	.	.	.	.	.	.	.	.	.
4E\	2g#/ 2d/ 2B/	.	4E\	.	4r	4r	4r	.	.	.	.	.	.	.	2g#/)	.	.	.	.
4EE/	.	.	4EE/	.	4B/	4d/	4g#/	.	.	.	.	.	.	.	.	.	.	.	.
=8	=8	=8	=8	=8	=8	=8	=8	=8	=8	=8	=8	=8	=8	=8	=8	=8	=8	=8	=8
4AA/	2a/ 2c#/	.	4AA/	.	4r	4r	4r	.	2r	.	2r	.	2r	.	2a/	-ni	-łu	-dni	.
4A\	.	.	4A\	.	4A/	4c#/	4a/	.	.	.	.	.	.	.	.	.	.	.	.
*2\right	*	*	*	*	*	*	*	*	*2\right	*	*2\right	*	*	*	*2\right	*	*	*	*
*	*	*	*tremolo	*	*tremolo	*tremolo	*tremolo	*	*	*	*	*	*	*	*	*	*	*	*
!	!	!	!LO:TX:a:t=arco	!	!	!	!	!	!	!	!	!	!	!	!	!	!	!	!
.	.	.	.	.	.	.	.	f	.	.	.	.	.	.	.	.	.	.	f
2A\ 2AA\	2cc#/ 2a/ 2e/	.	8A\L	.	8A/L	8e/L	8cc#\L	.	2A\	f	2A\	3.) Jak	2e/	2.) skła-	2cc#\	Ku	.	.	.
.	.	.	8A\	.	8A/	8e/	8cc#\	.	.	.	.	.	.	.	.	.	.	.	.
.	.	.	8A\	.	8A/	8e/	8cc#\	.	.	.	.	.	.	.	.	.	.	.	.
.	.	.	8A\J	.	8A/J	8e/J	8cc#\J	.	.	.	.	.	.	.	.	.	.	.	.
=9	=9	=9	=9	=9	=9	=9	=9	=9	=9	=9	=9	=9	=9	=9	=9	=9	=9	=9	=9
*^	*^	*	*	*	*	*	*	*	*	*	*	*	*	*	*	*	*	*	*
1B/	2G#\	2b/	1e\	.	8G#\L	.	8B/L	8e/L	8b\L	.	2G#\	.	2B\	bra-	2e/	-da-	2b\	To-	.	.	.
.	.	.	.	.	8G#\	.	8B/	8e/	8b\	.	.	.	.	.	.	.	.	.	.	.	.
.	.	.	.	.	8G#\	.	8B/	8e/	8b\	.	.	.	.	.	.	.	.	.	.	.	.
.	.	.	.	.	8G#\J	.	8B/	8e/	8b\J	.	.	.	.	.	.	.	.	.	.	.	.
.	[>2E\	2g#/	.	.	8E\L	.	8B/	8e/	8g#/L	.	2E\	.	2B\	-cia	2e/	-my	2g#/	-bie	.	.	.
.	.	.	.	.	8E\	.	8B/	8e/	8g#/	.	.	.	.	.	.	.	.	.	.	.	.
.	.	.	.	.	8E\	.	8B/	8e/	8g#/	.	.	.	.	.	.	.	.	.	.	.	.
.	.	.	.	.	8E\J	.	8B/J	8e/J	8g#/J	.	.	.	.	.	.	.	.	.	.	.	.
=10	=10	=10	=10	=10	=10	=10	=10	=10	=10	=10	=10	=10	=10	=10	=10	=10	=10	=10	=10	=10	=10
[1B/	2E\]	2a/	1f#\	.	8E\L	.	8B/L	8f#/L	8a/L	.	2E\	.	2B\	wie-	2f#/	Ci	2a/	się	.	.	.
.	.	.	.	.	8E\	.	8B/	8f#/	8a/	.	.	.	.	.	.	.	.	.	.	.	.
.	.	.	.	.	8E\	.	8B/	8f#/	8a/	.	.	.	.	.	.	.	.	.	.	.	.
.	.	.	.	.	8E\J	.	8B/	8f#/	8a/J	.	.	.	.	.	.	.	.	.	.	.	.
.	2D#X\	2b/	.	.	8D#X\L	.	8B/	8f#/	8b/L	.	2D#X\	.	2B\	-cznie	2f#/	o	2b/	wzno-	.	.	.
.	.	.	.	.	8D#X\	.	8B/	8f#/	8b/	.	.	.	.	.	.	.	.	.	.	.	.
.	.	.	.	.	8D#X\	.	8B/	8f#/	8b/	.	.	.	.	.	.	.	.	.	.	.	.
.	.	.	.	.	8D#X\J	.	8B/J	8f#/J	8b/J	.	.	.	.	.	.	.	.	.	.	.	.
*v	*v	*	*	*	*	*	*	*	*	*	*	*	*	*	*	*	*	*	*	*	*
*	*v	*v	*	*	*	*	*	*	*	*	*	*	*	*	*	*	*	*	*	*
!!LO:PB:g=original
=11	=11	=11	=11	=11	=11	=11	=11	=11	=11	=11	=11	=11	=11	=11	=11	=11	=11	=11	=11
1B\_> [1E\	[>1g#/ [>1e/	.	4E\	.	8B/L	8e/L	8g#/L	.	1E\	.	1B\	ży-	1e/	.	1g#/	-sie-	.	.	.
.	.	.	.	.	8G#/	8B/	8e/	.	.	.	.	.	.	.	.	.	.	.	.
.	.	.	4E\	.	8B/	8e/	8g#/	.	.	.	.	.	.	.	.	.	.	.	.
.	.	.	.	.	8e/J	8g#/J	8b/J	.	.	.	.	.	.	.	.	.	.	.	.
.	.	.	4BB/	.	8g#\L	8b/L	8ee\L	.	.	.	.	.	.	.	.	.	.	.	.
.	.	.	.	.	8B\	8e/	8g#\	.	.	.	.	.	.	.	.	.	.	.	.
.	.	.	4GG#/	.	8e\	8g#/	8b\	.	.	.	.	.	.	.	.	.	.	.	.
.	.	.	.	.	8g#\J	8b/J	8ee\J	.	.	.	.	.	.	.	.	.	.	.	.
=12	=12	=12	=12	=12	=12	=12	=12	=12	=12	=12	=12	=12	=12	=12	=12	=12	=12	=12	=12
*	*^	*	*	*	*	*	*	*	*	*	*	*	*	*	*	*	*	*	*
2B\] 2E\]	2g#/] 2e/]	2ryy	.	2EE/	.	2b\	2ee\	2gg#\	.	2E\	.	2B\	-li	2e/	.	2g#/	-my	.	.	.
!	!	!	!	!LO:TX:a:t=pizz(icato)	!	!	!	!	!LO:DY:b	!	!	!	!	!	!	!	!	!	!	!
.	.	.	.	.	.	.	.	.	p	.	.	.	.	.	.	.	.	.	.	.
4E\	[<4e/	4e\	.	4E\	.	4e\	2e/	4e/	.	2r	.	2r	.	2r	.	4e/	Przez	Z je-	O-	.
4D\	4g#/	4e\]	.	4Dn\	.	4dn\	.	4g#/	.	.	.	.	.	.	.	4g#/	.	.	.	.
=13	=13	=13	=13	=13	=13	=13	=13	=13	=13	=13	=13	=13	=13	=13	=13	=13	=13	=13	=13	=13
4C#/	2a/	1e\	.	4C#/	.	4c#\	4e/	4a/	.	1r	.	1r	.	1r	.	2a/	Cie-	-dne-	-fia-	.
4A\	.	.	.	4A\	.	4c#\	4e/	4a/	.	.	.	.	.	.	.	.	.	.	.	.
4G#\	2b/	.	.	4G#\	.	4r	4r	4r	.	.	.	.	.	.	.	2b/	-bie	-go	-ry	.
4GG#/	.	.	.	4GG#/	.	4e\	4e/	4b/	.	.	.	.	.	.	.	.	.	.	.	.
*	*v	*v	*	*	*	*	*	*	*	*	*	*	*	*	*	*	*	*	*	*
=14	=14	=14	=14	=14	=14	=14	=14	=14	=14	=14	=14	=14	=14	=14	=14	=14	=14	=14	=14
4AA/	2cc#/ 2a/ 2e/	.	4AA/	.	4r	4r	4r	.	1r	.	1r	.	1r	.	2cc#\	wy-	Oj-	Two-	.
4C#/	.	.	4C#/	.	4e\	4a/	4cc#\	.	.	.	.	.	.	.	.	.	.	.	.
4F#\	2a/ 2f#/ 2c#/	.	4F#\	.	4r	4r	4r	.	.	.	.	.	.	.	2a/	-ba-	-ca	-iej	.
4E\	.	.	4E\	.	4c#\	4f#/	4a/	.	.	.	.	.	.	.	.	.	.	.	.
=15	=15	=15	=15	=15	=15	=15	=15	=15	=15	=15	=15	=15	=15	=15	=15	=15	=15	=15	=15
4D/	2f#/ 2d/	.	4D\	.	4r	4r	4r	.	1r	.	1r	.	1r	.	(2f#/	-wie-	sto-	go-	.
4BB/	.	.	4BB/	.	4d\	4f#/	4f#/	.	.	.	.	.	.	.	.	.	.	.	.
4E\	2g#/ 2d/ 2B/	.	4E\	.	4r	4r	4r	.	.	.	.	.	.	.	2g#/)	.	.	.	.
4EE/	.	.	4EE/	.	4B/	4d/	4g#/	.	.	.	.	.	.	.	.	.	.	.	.
=16	=16	=16	=16	=16	=16	=16	=16	=16	=16	=16	=16	=16	=16	=16	=16	=16	=16	=16	=16
4AA/	2a/ 2c#/	.	4AA/	.	4r	4r	4r	.	2r	.	2r	.	2r	.	2a/	-ni	-łu	-dni	.
4A\	.	.	4A\	.	4A/	4c#/	4a/	.	.	.	.	.	.	.	.	.	.	.	.
.	.	.	.	.	.	.	.	.	.	.	.	.	.	.	.	.	.	.	f
!	!	!	!	!LO:DY:b	!	!	!	!LO:DY:b	!	!LO:DY:a	!	!	!	!	!	!	!	!	!
.	.	.	.	f	.	.	.	f	.	f	.	.	.	.	.	.	.	.	.
2F#\	2a/ 2f#/ 2c#/	.	8F#\L	.	8c#\L	8a/L	8a/L	.	2F#\	.	2c#\	Na-	2a/	Je-	2a/	Twój	.	.	.
.	.	.	8F#\	.	8c#\	8a/	8a/	.	.	.	.	.	.	.	.	.	.	.	.
.	.	.	8F#\	.	8c#\	8a/	8a/	.	.	.	.	.	.	.	.	.	.	.	.
.	.	.	8F#\J	.	8c#\J	8a/J	8a/J	.	.	.	.	.	.	.	.	.	.	.	.
!!LO:LB:g=original
=17	=17	=17	=17	=17	=17	=17	=17	=17	=17	=17	=17	=17	=17	=17	=17	=17	=17	=17	=17
*	*^	*	*	*	*	*	*	*	*	*	*	*	*	*	*	*	*	*	*
*	*	*^	*	*	*	*	*	*	*	*	*	*	*	*	*	*	*	*	*	*
2E#X\	4cc#/	2g#\	1c#/	.	8E#X\L	.	8c#\L	8g#/L	8cc#\L	.	2E#X\	.	2c#\	-u-	2g#/	-dna-	(4cc#\	chri-	.	.	.
.	.	.	.	.	8E#X\	.	8c#\	8g#/	8cc#\J	.	.	.	.	.	.	.	.	.	.	.	.
.	4b/	.	.	.	8E#X\	.	8c#\	8g#/	8b\L	.	.	.	.	.	.	.	4b\)	.	.	.	.
.	.	.	.	.	8E#X\J	.	8c#\	8g#/J	8b\J	.	.	.	.	.	.	.	.	.	.	.	.
2F#\	2a/ 2f#/	2ryy	.	.	8F#\L	.	8c#\	8b/L	8a/L	.	2F#\	.	2c#\	-ki	2a/	-kie	2a/	-ste	.	.	.
.	.	.	.	.	8F#\	.	8c#\	8b/	8a/	.	.	.	.	.	.	.	.	.	.	.	.
.	.	.	.	.	8F#\	.	8c#\	8b/	8a/	.	.	.	.	.	.	.	.	.	.	.	.
.	.	.	.	.	8F#\J	.	8c#\J	8b/J	8a/J	.	.	.	.	.	.	.	.	.	.	.	.
=18	=18	=18	=18	=18	=18	=18	=18	=18	=18	=18	=18	=18	=18	=18	=18	=18	=18	=18	=18	=18	=18
2D\	2b/	1f#\	2d\	.	8D\L	.	8d\L	8f#/L	8b\L	.	2D\	.	2d\	Twe	2f#/	bie-	2b\	zgon	.	.	.
.	.	.	.	.	8D\	.	8d\	8f#/	8b\	.	.	.	.	.	.	.	.	.	.	.	.
.	.	.	.	.	8D\	.	8d\	8f#/	8b\	.	.	.	.	.	.	.	.	.	.	.	.
.	.	.	.	.	8D\J	.	8d\J	8f#/	8b\J	.	.	.	.	.	.	.	.	.	.	.	.
4AA#X/	4cc#/	.	4e\	.	8AA#X/L	.	8e\L	8f#/	8cc#\L	.	(4AA#X/	.	(4e\	peł-	2f#/	-rzem	(4cc#\	świę-	.	.	.
.	.	.	.	.	8AA#X/J	.	8e\J	8f#/	8cc#\J	.	.	.	.	.	.	.	.	.	.	.	.
4BB/	4dd/	.	4d\	.	8BB/L	.	8d\L	8f#/	8dd\L	.	4BB/)	.	4d\)	.	.	.	4dd\)	.	.	.	.
.	.	.	.	.	8BB/J	.	8d\J	8f#/J	8dd\J	.	.	.	.	.	.	.	.	.	.	.	.
=19	=19	=19	=19	=19	=19	=19	=19	=19	=19	=19	=19	=19	=19	=19	=19	=19	=19	=19	=19	=19	=19
2E\	2.cc#/	2a/	2.e\	.	8E\L	.	8e\L	8a/L	8cc#\L	.	1E\	.	(2.e\	-ni-	(>2a/	da-	(2.cc#\	-cie-	.	.	.
.	.	.	.	.	8E\	.	8e\	8a/	8cc#\	.	.	.	.	.	.	.	.	.	.	.	.
.	.	.	.	.	8E\	.	8e\	8a/	8cc#\	.	.	.	.	.	.	.	.	.	.	.	.
.	.	.	.	.	8E\J	.	8e\	8a/J	8cc#\	.	.	.	.	.	.	.	.	.	.	.	.
2E/ 2EE/	.	2g#\	.	.	8EE/L	.	8e\	8g#/L	8cc#\	.	.	.	.	.	2g#/)	.	.	.	.	.	.
.	.	.	.	.	8EE/	.	8e\J	8g#/	8cc#\J	.	.	.	.	.	.	.	.	.	.	.	.
.	4b/	.	4d/	.	8EE/	.	8d\L	8g#/	8b\L	.	.	.	4d\)	.	.	.	4b\)	.	.	.	.
.	.	.	.	.	8EE/J	.	8d\J	8g#/J	8b\J	.	.	.	.	.	.	.	.	.	.	.	.
*	*	*	*	*	*Xtremolo	*	*Xtremolo	*Xtremolo	*Xtremolo	*	*	*	*	*	*	*	*	*	*	*	*
*	*v	*v	*v	*	*	*	*	*	*	*	*	*	*	*	*	*	*	*	*	*	*
=20	=20	=20	=20	=20	=20	=20	=20	=20	=20	=20	=20	=20	=20	=20	=20	=20	=20	=20	=20
2E/ 2AA/	2a/ 2c#/	.	2AA/	.	2c#\	2a/	2a/	.	2A\	.	2c#\	-li.	2a/	-ry.	2a/	-my.	.	.	.
!	!	!	!	!LO:DY:a	!	!	!	!	!	!	!	!	!	!	!	!	!	!	!
.	.	.	.	p	.	.	.	p	.	.	.	.	.	.	.	.	.	.	.
2c#\ 2C#\	2ee\ 2a\	.	2C#/	.	2c#\	2a/	2ee\	.	2r	.	2r	.	2r	.	2r	.	.	.	.
=21	=21	=21	=21	=21	=21	=21	=21	=21	=21	=21	=21	=21	=21	=21	=21	=21	=21	=21	=21
*^	*	*	*	*	*	*	*	*	*	*	*	*	*	*	*	*	*	*	*
2B\	2BB\	2dd/ 2f#/	.	2BB/	.	2d\	2f#/	2dd\	.	1r	.	1r	.	1r	.	1r	.	.	.	.
2E/	2E\	2b/ 2g#/ 2e/	.	2E\	.	2e\	2g#/	2b\	.	.	.	.	.	.	.	.	.	.	.	.
*v	*v	*	*	*	*	*	*	*	*	*	*	*	*	*	*	*	*	*	*	*
=22	=22	=22	=22	=22	=22	=22	=22	=22	=22	=22	=22	=22	=22	=22	=22	=22	=22	=22	=22
2A/ 2AA/	2cc#/ 2a/ 2e/	.	4AA/	.	4e\	4a/	4cc#\	.	1r	.	1r	.	1r	.	1r	.	.	.	.
.	.	.	4A\	.	4e\	4a/	4cc#\	.	.	.	.	.	.	.	.	.	.	.	.
2F#/ 2FF#/	2cc#/ 2a/ 2f#/	.	4FF#/	.	4r	4r	4r	.	.	.	.	.	.	.	.	.	.	.	.
.	.	.	4F#\	.	4f#\	4a/	4cc#\	.	.	.	.	.	.	.	.	.	.	.	.
=23	=23	=23	=23	=23	=23	=23	=23	=23	=23	=23	=23	=23	=23	=23	=23	=23	=23	=23	=23
*	*^	*	*	*	*	*	*	*	*	*	*	*	*	*	*	*	*	*	*
2D/ 2DD/	4ee/ 4a#X/	2f#\	.	4DD/	.	2f#\	(4a#X/	(4ee\	.	1r	.	1r	.	1r	.	2r	.	.	.	.
.	4dd/ 4b/	.	.	4D\	.	.	4b/)	4dd\)	.	.	.	.	.	.	.	.	.	.	.	.
!	!	!	!	!	!	!	!	!	!	!	!	!	!	!	!	!LO:TX:t=P:problem=repetycja w srodku taktu	!	!	!	!
2E/ 2EE/	4cc#/ 4a#/	2e\	.	4E\	.	(4e\	(4an/	4cc#\	.	.	.	.	.	.	.	4r	.	.	.	.
=-	=-	=-	=-	=-	=-	=-	=-	=-	=-	=-	=-	=-	=-	=-	=-	=:|	=	=	=	=
.	4b/ 4g#/ 4d/	.	.	4EE/	.	4d\)	4g#/)	4b\	.	.	.	.	.	.	.	4r	.	.	.	.
*	*v	*v	*	*	*	*	*	*	*	*	*	*	*	*	*	*	*	*	*	*
=24:|!	=24:|!	=24:|!	=24:|!	=24:|!	=24:|!	=24:|!	=24:|!	=24:|!	=24:|!	=24:|!	=24:|!	=24:|!	=24:|!	=24:|!	=24:|!	=24:|!	=24:|!	=24:|!	=24:|!
*>C	*	*	*	*	*	*	*	*	*	*	*	*	*	*	*	*	*	*	*
1E/ 1EE/	1b/ 1g#/ 1e/ 1d/	.	4E\	.	1d\	1g#/	1b\	.	1r	.	1r	.	1r	.	1r	.	.	.	.
.	.	.	4BB/	.	.	.	.	.	.	.	.	.	.	.	.	.	.	.	.
.	.	.	4GG#/	.	.	.	.	.	.	.	.	.	.	.	.	.	.	.	.
.	.	.	4EE/	.	.	.	.	.	.	.	.	.	.	.	.	.	.	.	.
=25	=25	=25	=25	=25	=25	=25	=25	=25	=25	=25	=25	=25	=25	=25	=25	=25	=25	=25	=25
4A\ 4AA\	4a/ 4e/ 4c#/	.	4AA/	.	4c#\	4a/	4a/	.	2r;	.	2r;	.	2r;	.	2r;	.	.	.	.
4r;	4r;	.	4r;	.	4r;	4r;	4r;	.	.	.	.	.	.	.	.	.	.	.	.
==	==	==	==	==	==	==	==	==	==	==	==	==	==	==	==	==	==	==	==
*-	*-	*-	*-	*-	*-	*-	*-	*-	*-	*-	*-	*-	*-	*-	*-	*-	*-	*-	*-
!!!system-decoration: {(s1,s2,s3,s4)}{(s5,s6,s7,s8)}{(s9,s10)}
!!!RDF**kern: > = above
!!!RDF**kern: < = below
!!!EED: Leszek Kubiak
!!!EEV: 2021-04-27
!!!ENC: Andrzej Gręziak
!!!END: 2021-04-11
!!!YEC: Copyright 2022 Narodowy Instytut Fryderyka Chopina (https://polishscores.org)
!!!YEM: License CC-BY-4.0 (https://creativecommons.org/licenses/by/4.0)
